X:1
T: Irish Reel
P:Kerr's 2nd #297
R:Reel
Q: 232
K:Em
M:4/4
L:1/8
|:e2|G2 GA BE E2|BE dE BE EF|G2 GA BA Bd|eg fd e2 e2|
G2 GA BE E2|BE dE BE EF|G2 GA BA Bd|eg fd e2 ef|
((3gag) ((3fgf) ed Bd|d2 ed Bd d2|((3gag) ((3fgf) ed Bc|eg Fd e2 eg|
((3gag) ((3fgf) ed Bd|d2 ed Bd d2|bg af gf ed|eg fd e2:|
